X: 32235
T: Phyllis' Birthday
R: reel
M: 4/4
K: Fmajor
|:G|AF ~F2 Acdc|AcGc AGFD|CDFG Ac ~c2|dcAF G2FG|
AF ~F2 Acdc|AcGc AGFD|CDFG c ~c2|dcAG F3:|
|:c|cdfg afgf|dfcB AF ~F2|cdfg afgf|dggf g2 fd|
cdfg afgf|dfcB AFFD|CDFG Ac ~c2|dcAG F3:|

